src/pos-icons/kickstarter.svg

<svg height="24" viewBox="0 0 24 24" width="24" xmlns="http://www.w3.org/2000/svg"><path d="m19.3 10.2-1.8 1.8 1.8 1.8c1.89 1.87 1.89 4.92 0 6.79-1.88 1.87-4.95 1.87-6.83 0l-.67-.66c-.87 1.26-2.3 2.07-3.97 2.07-2.67 0-4.83-2.15-4.83-4.8v-10.4c0-2.65 2.16-4.8 4.83-4.8 1.67 0 3.1.82 3.97 2.07l.67-.66c1.88-1.87 4.95-1.87 6.83 0 1.89 1.87 1.89 4.92 0 6.79z"/></svg>

<?xml version="1.0" encoding="UTF-8"?><!DOCTYPE svg PUBLIC "-//W3C//DTD SVG 1.1//EN" "http://www.w3.org/Graphics/SVG/1.1/DTD/svg11.dtd"><svg xmlns="http://www.w3.org/2000/svg" xmlns:xlink="http://www.w3.org/1999/xlink" version="1.1" id="mdi-kickstarter" width="24" height="24" viewBox="0 0 24 24"><path d="M19.3 10.2L17.5 12L19.3 13.8C21.19 15.67 21.19 18.72 19.3 20.59C17.42 22.46 14.35 22.46 12.47 20.59L11.8 19.93C10.93 21.19 9.5 22 7.83 22C5.16 22 3 19.85 3 17.2V6.8C3 4.15 5.16 2 7.83 2C9.5 2 10.93 2.82 11.8 4.07L12.47 3.41C14.35 1.54 17.42 1.54 19.3 3.41C21.19 5.28 21.19 8.33 19.3 10.2Z" /></svg>
